Origami/32x32/apps/VVVVVV.svg

<svg width="32" height="32" version="1" xmlns="http://www.w3.org/2000/svg">
 <rect transform="matrix(0,-1,-1,0,0,0)" x="-31" y="-30" width="28" height="28" rx="1.4" ry="1.4" style="opacity:.2"/>
 <rect transform="matrix(0,-1,-1,0,0,0)" x="-30" y="-30" width="28" height="28" rx="1.4" ry="1.4" style="fill:#407494"/>
 <path d="m10 8v2h-2v11h2v2h3v2h-3v1h12v-1h-3v-2h3v-2h2v-11h-2v-2z" style="opacity:.2"/>
 <path d="m10 7v2h-2v11h2v2h3v2h-3v1h12v-1h-3v-2h3v-2h2v-11h-2v-2z" style="fill:#91c2d0"/>
 <path d="m10 11v4h4v-4zm7 0v4h4v-4zm-7 7v2h2v1h6v-1h2v-2z" style="opacity:.2"/>
 <path d="m10 10v4h4v-4zm7 0v4h4v-4zm-7 7v2h2v1h6v-1h2v-2z" style="fill:#404040"/>
 <path d="M 3.4003906 2 C 2.6247906 2 2 2.6247906 2 3.4003906 L 2 4.4003906 C 2 3.6247906 2.6247906 3 3.4003906 3 L 28.599609 3 C 29.375209 3 30 3.6247906 30 4.4003906 L 30 3.4003906 C 30 2.6247906 29.375209 2 28.599609 2 L 3.4003906 2 z" style="fill:#ffffff;opacity:.1"/>
 <path d="m10 7v1h12v-1h-12zm-2 2v1h2v-1h-2zm14 0v1h2v-1h-2zm-12 15v1h3v-1h-3zm9 0v1h3v-1h-3z" style="fill:#ffffff;opacity:.1"/>
</svg>

<svg xmlns="http://www.w3.org/2000/svg" width="32" height="32" version="1">
 <rect style="opacity:0.2" width="28" height="28" x="-31" y="-30" rx="1.4" ry="1.4" transform="matrix(0,-1,-1,0,0,0)"/>
 <rect style="fill:#407494" width="28" height="28" x="-30" y="-30" rx="1.4" ry="1.4" transform="matrix(0,-1,-1,0,0,0)"/>
 <path style="opacity:0.2" d="m 10,8 v 2 H 8 v 11 h 2 v 2 h 3 v 2 h -3 v 1 h 12 v -1 h -3 v -2 h 3 v -2 h 2 V 10 H 22 V 8 Z"/>
 <path style="fill:#91c2d0" d="M 10,7 V 9 H 8 v 11 h 2 v 2 h 3 v 2 h -3 v 1 h 12 v -1 h -3 v -2 h 3 v -2 h 2 V 9 H 22 V 7 Z"/>
 <path style="opacity:0.2" d="m 10,11 v 4 h 4 v -4 z m 7,0 v 4 h 4 v -4 z m -7,7 v 2 h 2 v 1 h 6 v -1 h 2 v -2 z"/>
 <path style="fill:#404040" d="m 10,10 v 4 h 4 v -4 z m 7,0 v 4 h 4 v -4 z m -7,7 v 2 h 2 v 1 h 6 v -1 h 2 v -2 z"/>
 <path style="fill:#ffffff;opacity:0.1" d="M 3.4003906 2 C 2.6247906 2 2 2.6247906 2 3.4003906 L 2 4.4003906 C 2 3.6247906 2.6247906 3 3.4003906 3 L 28.599609 3 C 29.375209 3 30 3.6247906 30 4.4003906 L 30 3.4003906 C 30 2.6247906 29.375209 2 28.599609 2 L 3.4003906 2 z"/>
 <path style="fill:#ffffff;opacity:0.1" d="M 10 7 L 10 8 L 22 8 L 22 7 L 10 7 z M 8 9 L 8 10 L 10 10 L 10 9 L 8 9 z M 22 9 L 22 10 L 24 10 L 24 9 L 22 9 z M 10 24 L 10 25 L 13 25 L 13 24 L 10 24 z M 19 24 L 19 25 L 22 25 L 22 24 L 19 24 z"/>
</svg>
